build/assets/img/svg/icon-arrow-7.svg

<svg width="112" height="110" viewBox="0 0 112 110" fill="none" xmlns="http://www.w3.org/2000/svg">
<path d="M84.7994 89.5221L83.1701 88.1269C84.1225 86.904 85.0747 85.681 85.9258 84.2626L87.5551 85.6578C86.8835 86.9852 85.7517 88.2992 84.7994 89.5221ZM90.2094 81.598L88.4007 80.2938C89.2517 78.8754 89.9233 77.5479 90.5949 76.2205L92.4818 77.2383C91.9115 78.7612 91.2399 80.0887 90.2094 81.598ZM94.3722 72.5787L92.4071 71.8472C92.5634 71.2745 92.7198 70.7017 92.7979 70.4153C92.9312 69.3607 93.1657 68.5015 93.2989 67.4469L95.3422 67.892C95.2089 68.9466 95.177 70.1966 94.763 71.1468C94.6849 71.4331 94.5285 72.0059 94.3722 72.5787ZM95.2675 62.5009L93.2473 62.5377C93.0767 60.8967 92.7267 59.3467 92.1972 57.8877L94.1942 57.3691C94.7237 58.8281 94.9956 60.6645 95.2675 62.5009ZM90.1486 53.497C89.2602 52.2199 88.3718 50.9427 87.1245 49.8475L88.3344 48.2472C89.5817 49.3424 90.8521 50.9195 91.8418 52.3921L90.1486 53.497ZM83.1481 47.4209C81.7445 46.8985 80.3409 46.376 78.6796 46.2308L78.9461 44.1216C80.7086 44.4622 82.4712 44.8028 83.9761 45.5207L83.1481 47.4209ZM74.2574 46.0044C72.8768 45.9638 71.4181 46.2096 69.6787 46.3508L69.2043 44.1235C70.9437 43.9823 72.5819 43.6456 73.9624 43.6862L74.2574 46.0044ZM64.8425 47.0745L63.3838 47.3203C62.3853 47.5796 61.2855 47.6434 60.1075 47.9937L59.6331 45.7664C60.6316 45.5071 61.7314 45.4433 62.7299 45.184L64.1886 44.9382L64.8425 47.0745ZM55.4507 48.6264C53.8907 48.6768 52.1513 48.818 50.5914 48.8683L50.3977 46.7456C51.9577 46.6953 53.5176 46.6449 55.0776 46.5946L55.4507 48.6264ZM45.7089 48.6284C44.0477 48.4832 42.3864 48.3381 40.9046 48.102L41.1711 45.9928C42.6529 46.2289 44.3142 46.374 45.796 46.6101L45.7089 48.6284ZM36.0772 47.0939C34.4942 46.6624 32.9111 46.2308 31.328 45.7993L31.8752 43.7946C33.4583 44.2261 34.8619 44.7486 36.445 45.1801L36.0772 47.0939ZM26.5557 44.0229C25.0508 43.305 23.3665 42.6781 21.8616 41.9601L22.6895 40.0599C24.1944 40.7778 25.6993 41.4957 27.1029 42.0182L26.5557 44.0229ZM17.6045 39.4291C16.1777 38.4248 14.6728 37.7069 13.2461 36.7026L14.3547 34.9068C15.7815 35.9111 17.1069 36.72 18.4324 37.5288L17.6045 39.4291ZM9.14535 33.5987C8.38135 32.9989 7.61736 32.399 6.85336 31.7991L8.06326 30.1988C8.82727 30.7987 9.41182 31.4895 10.1758 32.0894L9.14535 33.5987Z" fill="black"/>
<path d="M94.8182 87.2561L94.3439 85.0297L84.3938 86.3723L82.9658 75.7489L80.9463 75.7856L82.4898 88.8173L94.8182 87.2561Z" fill="black"/>
</svg>

<svg width="112" height="110" fill="none" xmlns="http://www.w3.org/2000/svg"><path d="M84.8 89.522l-1.63-1.395c.953-1.223 1.905-2.446 2.756-3.864l1.63 1.395c-.672 1.327-1.804 2.641-2.757 3.864zm5.41-7.924l-1.81-1.304c.852-1.419 1.523-2.746 2.195-4.073l1.887 1.017a19.503 19.503 0 01-2.273 4.36zm4.162-9.02l-1.965-.73c.156-.573.313-1.146.39-1.433.134-1.054.369-1.914.502-2.968l2.043.445c-.133 1.055-.165 2.305-.579 3.255-.078.286-.235.859-.39 1.432zm.895-10.077l-2.02.037a19.483 19.483 0 00-1.05-4.65l1.997-.519c.53 1.46.802 3.295 1.073 5.132zm-5.118-9.004c-.889-1.277-1.777-2.554-3.025-3.65l1.21-1.6c1.248 1.095 2.518 2.672 3.508 4.145l-1.693 1.105zm-7-6.076c-1.404-.523-2.808-1.045-4.47-1.19l.267-2.11c1.763.341 3.525.682 5.03 1.4l-.828 1.9zm-8.892-1.417c-1.38-.04-2.839.206-4.578.347l-.475-2.227c1.74-.142 3.378-.478 4.758-.438l.295 2.318zm-9.415 1.07l-1.458.246c-.999.26-2.099.323-3.276.674l-.475-2.228c.999-.259 2.098-.323 3.097-.582l1.459-.246.654 2.136zm-9.391 1.552c-1.56.05-3.3.192-4.86.242l-.193-2.122 4.68-.151.373 2.031zm-9.742.002c-1.661-.145-3.323-.29-4.804-.526l.266-2.11c1.482.237 3.143.382 4.625.618l-.087 2.018zm-9.632-1.534l-4.749-1.295.547-2.004c1.583.431 2.987.954 4.57 1.385l-.368 1.914zm-9.521-3.071c-1.505-.718-3.19-1.345-4.694-2.063l.828-1.9c1.504.718 3.01 1.436 4.413 1.958l-.547 2.005zm-8.951-4.594c-1.427-1.004-2.932-1.722-4.359-2.726l1.109-1.796c1.426 1.004 2.752 1.813 4.077 2.622l-.827 1.9zm-8.46-5.83l-2.292-1.8 1.21-1.6c.764.6 1.349 1.29 2.113 1.89l-1.03 1.51z" fill="#000"/><path d="M94.818 87.256l-.474-2.226-9.95 1.342-1.428-10.623-2.02.037 1.544 13.031 12.328-1.56z" fill="#000"/></svg>
